biglinux-webapps/usr/share/icons/hicolor/scalable/apps/webapp-snapdrop.svg

<?xml version="1.0" encoding="UTF-8" standalone="no"?>
<svg
   width="24"
   height="24"
   viewBox="0 0 24 24"
   fill="none"
   version="1.1"
   id="svg154"
   sodipodi:docname="app.svg"
   inkscape:version="1.2.2 (b0a8486541, 2022-12-01)"
   xml:space="preserve"
   inkscape:export-filename="../../../../ícones big/mailyahoo.pdf"
   inkscape:export-xdpi="96"
   inkscape:export-ydpi="96"
   xmlns:inkscape="http://www.inkscape.org/namespaces/inkscape"
   xmlns:sodipodi="http://sodipodi.sourceforge.net/DTD/sodipodi-0.dtd"
   xmlns:xlink="http://www.w3.org/1999/xlink"
   xmlns="http://www.w3.org/2000/svg"
   xmlns:svg="http://www.w3.org/2000/svg"
   xmlns:sketch="http://www.bohemiancoding.com/sketch/ns"><sodipodi:namedview
     id="namedview156"
     pagecolor="#ffffff"
     bordercolor="#000000"
     borderopacity="1"
     inkscape:showpageshadow="0"
     inkscape:pageopacity="1"
     inkscape:pagecheckerboard="false"
     inkscape:deskcolor="#ffffff"
     showgrid="true"
     inkscape:zoom="32"
     inkscape:cx="9.609375"
     inkscape:cy="15.453125"
     inkscape:window-width="1920"
     inkscape:window-height="1052"
     inkscape:window-x="0"
     inkscape:window-y="0"
     inkscape:window-maximized="1"
     inkscape:current-layer="svg154"
     showguides="true"
     guidecolor="#ff0000"
     guideopacity="1"
     inkscape:lockguides="true"
     showborder="true"
     borderlayer="true"><inkscape:grid
       type="xygrid"
       id="grid356"
       color="#000000"
       opacity="0.10196078"
       empcolor="#000000"
       empopacity="0.10196078"
       snapvisiblegridlinesonly="true"
       enabled="true"
       visible="true"
       dotted="false" /><sodipodi:guide
       position="4,12"
       orientation="-1,0"
       id="guide764"
       inkscape:locked="true"
       inkscape:label="left-circle"
       inkscape:color="rgb(255,0,0)" /><sodipodi:guide
       position="5,12"
       orientation="-1,0"
       id="guide2218"
       inkscape:locked="true"
       inkscape:label="left-square"
       inkscape:color="rgb(255,0,0)" /><sodipodi:guide
       position="12,20"
       orientation="0,1"
       id="guide2220"
       inkscape:locked="true"
       inkscape:label="top-circle"
       inkscape:color="rgb(255,0,0)" /><sodipodi:guide
       position="12,5"
       orientation="0,1"
       id="guide2222"
       inkscape:locked="true"
       inkscape:label="bottom-square"
       inkscape:color="rgb(255,0,0)" /><sodipodi:guide
       position="12,4"
       orientation="0,1"
       id="guide2224"
       inkscape:locked="true"
       inkscape:label="bottom-circle"
       inkscape:color="rgb(255,0,0)" /><sodipodi:guide
       position="19,12"
       orientation="-1,0"
       id="guide2226"
       inkscape:locked="true"
       inkscape:label="right-square"
       inkscape:color="rgb(255,0,0)" /><sodipodi:guide
       position="20,12"
       orientation="-1,0"
       id="guide2228"
       inkscape:locked="true"
       inkscape:label="right-circle"
       inkscape:color="rgb(255,0,0)" /><sodipodi:guide
       position="12,19"
       orientation="0,1"
       id="guide2230"
       inkscape:locked="true"
       inkscape:label="top-square"
       inkscape:color="rgb(255,0,0)" /><sodipodi:guide
       position="12,12"
       orientation="1,0"
       id="guide765"
       inkscape:locked="true" /><sodipodi:guide
       position="12,12"
       orientation="0,-1"
       id="guide767"
       inkscape:locked="true" /><sodipodi:guide
       position="12,12"
       orientation="0.70710678,0.70710678"
       id="guide2266"
       inkscape:locked="true"
       inkscape:label=""
       inkscape:color="rgb(255,0,0)" /><sodipodi:guide
       position="12,12"
       orientation="-0.70710678,0.70710678"
       id="guide2994"
       inkscape:locked="true"
       inkscape:label=""
       inkscape:color="rgb(255,0,0)" /><sodipodi:guide
       position="3,12"
       orientation="-1,0"
       id="guide131543"
       inkscape:locked="true"
       inkscape:label="left-horizontal"
       inkscape:color="rgb(255,0,0)" /><sodipodi:guide
       position="12,21"
       orientation="0,1"
       id="guide131545"
       inkscape:locked="true"
       inkscape:label="top-vertical"
       inkscape:color="rgb(255,0,0)" /><sodipodi:guide
       position="21,12"
       orientation="-1,0"
       id="guide131547"
       inkscape:locked="true"
       inkscape:label="right-horizontal"
       inkscape:color="rgb(255,0,0)" /><sodipodi:guide
       position="12,3"
       orientation="0,1"
       id="guide131549"
       inkscape:locked="true"
       inkscape:label="bottom-vertical"
       inkscape:color="rgb(255,0,0)" /></sodipodi:namedview><defs
     id="defs152"><linearGradient
       inkscape:collect="always"
       id="linearGradient4582"><stop
         style="stop-color:#cccccc;stop-opacity:1"
         offset="0"
         id="stop4578" /><stop
         style="stop-color:#f9f9f9;stop-opacity:1"
         offset="1"
         id="stop4580" /></linearGradient><linearGradient
       inkscape:collect="always"
       xlink:href="#linearGradient4582"
       id="linearGradient4584"
       x1="50.808331"
       y1="132.16579"
       x2="48.819595"
       y2="-21.509409"
       gradientUnits="userSpaceOnUse"
       gradientTransform="matrix(0.24444444,0,0,0.24444444,-0.22222222,-0.22222222)" /></defs><path
     d="M 12,0.99999998 C 2,0.99999998 0.99999998,6 0.99999998,12 0.99999998,20 4.0000001,23 12,23 20,23 23,20 23,12 23,6 22,0.99999998 12,0.99999998 Z"
     sketch:type="MSShapeGroup"
     id="path6"
     style="font-variation-settings:normal;display:inline;opacity:1;vector-effect:none;fill:url(#linearGradient4584);fill-opacity:1;stroke-width:1.11627;stroke-linecap:butt;stroke-linejoin:miter;stroke-miterlimit:4;stroke-dasharray:none;stroke-dashoffset:0;stroke-opacity:1;-inkscape-stroke:none;stop-color:#000000;stop-opacity:1"
     sodipodi:nodetypes="sssss"
     inkscape:label="Shape"
     sodipodi:insensitive="true" /><path
     style="fill:#3b87f9;stroke:none;stroke-width:0.0466807"
     d="m 15.184399,18.002503 c 0.09182,0.348844 0.380401,0.662771 0.552373,0.980293 0.05168,0.09537 0.114835,0.295676 0.241199,0.318968 0.140369,0.02591 0.358554,-0.18154 0.466805,-0.256742 0.408924,-0.283958 0.821628,-0.588736 1.167017,-0.949158 1.20114,-1.253376 2.02552,-2.934952 2.19399,-4.668063 C 20.058326,10.830209 19.09213,8.3235989 17.144987,6.565746 13.988396,3.7160556 8.615687,4.1991684 5.9571931,7.4993588 5.2357623,8.3949269 4.723932,9.427689 4.416732,10.5336 c -0.6881475,2.477342 0.012295,5.323741 1.7116247,7.2355 0.421568,0.474274 0.8729132,0.901403 1.4004183,1.260377 0.1155437,0.07866 0.3657891,0.300017 0.5134869,0.272287 0.222527,-0.04173 0.5348668,-0.824985 0.6535294,-1.019177 0.055454,-0.09075 0.1619346,-0.213564 0.085565,-0.318969 C 8.5184516,17.60049 7.8673494,17.314103 7.528775,16.975529 6.5114551,15.958218 5.847269,14.531144 5.7082309,13.101035 5.2703574,8.597194 10.014659,4.998761 14.204106,6.6279853 c 3.420244,1.3300855 5.063497,5.2952057 3.493253,8.6203597 -0.552698,1.170424 -1.467406,2.011282 -2.51296,2.754158 M 9.6760847,16.602084 C 9.810151,16.262435 10.401035,15.652693 10.360749,15.295026 10.34329,15.140232 10.113108,15.040009 10.002849,14.952717 9.7769614,14.773836 9.5837969,14.544354 9.4115454,14.314733 8.9416581,13.688185 8.8081043,12.885884 8.8825133,12.120742 9.0325454,10.577433 10.644662,9.2156656 12.19684,9.3665847 c 1.176025,0.1143205 2.19581,0.8468333 2.699681,1.9139053 0.436838,0.925071 0.330312,2.210002 -0.287833,3.034243 -0.22094,0.294554 -0.815885,0.624306 -0.941408,0.933612 -0.05107,0.125805 0.101391,0.318689 0.163382,0.420126 0.17986,0.294321 0.387729,0.615064 0.513486,0.933613 1.23153,-0.324105 2.015297,-2.008388 2.248467,-3.127602 0.544623,-2.614397 -1.289833,-5.3360185 -4.022331,-5.6016781 -2.492047,-0.2422771 -4.6563466,1.3347862 -5.1659925,3.7811311 -0.2975985,1.428475 0.1536449,3.110099 1.198138,4.154577 0.2887671,0.288767 0.6703345,0.68742 1.0736552,0.793572 m 2.1473093,-5.586133 c -0.336101,0.06535 -0.729618,0.183176 -0.964749,0.451263 -0.943369,1.075802 -0.04112,2.905355 1.431556,2.59857 1.898828,-0.395618 1.459376,-3.424351 -0.466807,-3.049833 z"
     id="path9828" /></svg>

<svg xmlns="http://www.w3.org/2000/svg" xmlns:xlink="http://www.w3.org/1999/xlink" xml:space="preserve" width="24" height="24" fill="none"><defs><linearGradient id="a"><stop offset="0" style="stop-color:#ccc;stop-opacity:1"/><stop offset="1" style="stop-color:#f9f9f9;stop-opacity:1"/></linearGradient><linearGradient xlink:href="#a" id="b" x1="50.808" x2="48.82" y1="132.166" y2="-21.509" gradientTransform="matrix(.24444 0 0 .24444 -.222 -.222)" gradientUnits="userSpaceOnUse"/></defs><path d="M12 1C2 1 1 6 1 12c0 8 3 11 11 11s11-3 11-11c0-6-1-11-11-11Z" style="font-variation-settings:normal;display:inline;opacity:1;vector-effect:none;fill:url(#b);fill-opacity:1;stroke-width:1.11627;stroke-linecap:butt;stroke-linejoin:miter;stroke-miterlimit:4;stroke-dasharray:none;stroke-dashoffset:0;stroke-opacity:1;-inkscape-stroke:none;stop-color:#000;stop-opacity:1"/><path d="M15.184 18.003c.092.348.38.662.553.98.051.095.115.295.241.319.14.026.359-.182.467-.257.409-.284.821-.589 1.167-.95 1.2-1.253 2.025-2.934 2.194-4.667a8.11 8.11 0 0 0-2.661-6.862c-3.157-2.85-8.53-2.367-11.188.933a8.395 8.395 0 0 0-1.54 3.035c-.688 2.477.012 5.323 1.711 7.235.422.474.873.902 1.4 1.26.116.08.367.3.514.273.223-.042.535-.825.654-1.02.055-.09.162-.213.085-.318-.263-.364-.914-.65-1.252-.988a6.477 6.477 0 0 1-1.82-3.875c-.439-4.504 4.306-8.102 8.495-6.473 3.42 1.33 5.064 5.295 3.493 8.62-.552 1.17-1.467 2.012-2.513 2.755m-5.508-1.4c.134-.34.725-.95.685-1.308-.018-.155-.248-.255-.358-.342a3.43 3.43 0 0 1-.591-.638c-.47-.627-.604-1.43-.53-2.194.15-1.544 1.763-2.905 3.315-2.754a3.35 3.35 0 0 1 2.7 1.913c.436.926.33 2.21-.288 3.035-.221.294-.816.624-.942.933-.05.126.102.319.164.42.18.295.387.616.513.934 1.232-.324 2.015-2.008 2.249-3.128.544-2.614-1.29-5.336-4.023-5.601-2.492-.242-4.656 1.335-5.166 3.78-.297 1.43.154 3.111 1.198 4.156.29.288.67.687 1.074.793m2.147-5.586c-.336.065-.73.183-.964.451-.944 1.076-.041 2.906 1.431 2.599 1.899-.396 1.46-3.425-.467-3.05z" style="fill:#3b87f9;stroke:none;stroke-width:.0466807"/></svg>
